!!!COM: Bach, Johann Sebastian
!!!OPR: Joh. Seb. Bachs vierstimmige Choralges‰nge
!!!XEN: Four-part Chorales
!!!OTL: 62. Gib dich zufrieden und sei stille
!!!SCT: BWV 315
!!!SCA: Thematisch-systematisches Verzeichnis der musikalischen Werke Johann Sebastian Bach: Bach-Werke-Verzeichnis (Schmieder)
!!!YOR: Bach Gesellschaft Edition xxxix
!!!ENC: Steven Rasmussen
!!!CDT: 1685/3//-1750/7/28/
!!!OCY: Deutschland
!!!YEC: Copyright (c) 1994, 2000 Center for Computer Assisted Research in the Humanities
!!!YEM: Rights to all derivative editions reserved
!!!YEN: United States of America
**kern	**silbe	**kern	**kern	**kern	**silbe
*I:[SOPRANO]	*I:[SOPRANO]	*I:[ALTO]	*I:[TENORE]	*I:[BASSO]	*I:[BASSO]
*>[A,A,B]	*	*>[A,A,B]	*>[A,A,B]	*>[A,A,B]	*
*>A	*	*>A	*>A	*>A	*
*clefG2	*	*clefG2	*clefGv2	*clefF4	*
*k[f#]	*	*k[f#]	*k[f#]	*k[f#]	*
*e:	*	*e:	*e:	*e:	*
*M4/4	*	*M4/4	*M4/4	*M4/4	*
4b	Gibin	4e	4G	4E	.
=1	=1	=1	=1	=1	=1
4g	dichihm	4e	4B	8EL	.
.	.	.	.	8D#J	.
8aL	zu-ruht	8f#L	8cL	8EL	.
16bL	.	16gL	8F#J	8D#J	.
16ccJJ	.	16aJJ	.	.	.
4.b	-frie-al-	8gL	8GL	8EL	.
.	.	8d#J	8AJ	8F#J	.
.	.	8eL	8BL	8GL	.
8a	-den-ler	8f#J	8cJ	8AJ	.
=2	=2	=2	=2	=2	=2
4g	undFreu-	8f#L	4B	4B	.
.	.	8eJ	.	.	.
8f#L	sei-den	8eL	4B	4BB	.
16gL	.	8d#J	.	.	.
16aJJ	.	.	.	.	.
(4.g	stil-F√ºl-	(4.e	8BL	2E	.
.	.	.	8GJ	.	.
.	.	.	4A	.	.
8f#)	.	8d#)	.	.	.
=3	=3	=3	=3	=3	=3
2e;	-le-le,	2e;	2G;	2E;	.
4cc	inohn'	4.g	8GL	4.E	.
.	.	.	8AJ	.	.
4b	demihn	.	4B	.	.
.	.	8f#	.	8D	.
=4	=4	=4	=4	=4	=4
4ee	Got-m√ºhst	8eL	8BL	(8C	.
.	.	8f#J	8AJ	4c)	.
4dd	-tedu	8f#L	8AL	.	.
.	.	8gJ	8BJ	8B	.
8f#L	dei-dich	4f#	4c	4A	.
8ccJ	.	.	.	.	.
8bL	-nesver-	4g	4d	4G	.
8aJ	.	.	.	.	.
=5	=5	=5	=5	=5	=5
2a	Le--ge-	4g	4e	4C	.
.	.	4f#	8dL	4D	.
.	.	.	8cJ	.	.
4g;	-bens,-bens.	4d;	4B;	4GG;	.
=:|!	=:|!	=:|!	=:|!	=:|!	=:|!
*>B	*	*>B	*>B	*>B	*
4b	Er	4g	4d	4G	.
=6	=6	=6	=6	=6	=6
4a	ist	8aL	4d	8F#L	.
.	.	8f#J	.	8DJ	.
8bL	dein	8gL	8dL	4G	.
8gJ	.	8eJ	8c#J	.	.
4a	Quell	4f#	4d	8DL	.
.	.	.	.	8EJ	.
8bL	und	4e	8G#L	8DL	.
8ccJ	.	.	8AJ	8CJ	.
=7	=7	=7	=7	=7	=7
4dd	dei-	4d	8AL	4BB	.
.	.	.	8BJ	.	.
8ccL	-ne	4e	4G#	4E	.
8bJ	.	.	.	.	.
8ccL	Son-	8eL	8AL	4A	.
8bJ	.	8dJ	8BJ	.	.
4a;	-ne,	4e;	4c;	4AA;	.
=8	=8	=8	=8	=8	=8
4r	.	4r	4r	4r	.
4cc	scheint	4e	4c	4A	.
4f#	t√§g-	8d#L	4.B	8BL	.
.	.	8eJ	.	8cJ	.
8eeL	-lich	4f#	.	8BL	.
8dd#J	.	.	8c	8AJ	.
=9	=9	=9	=9	=9	=9
8eeL	hell	8eL	8BL	8GL	.
8ddJ	.	8f#J	8AJ	8F#J	.
8ccL	zu	8gL	8GL	8EL	.
8bJ	.	8fnJ	8G#J	8DJ	.
8aL	dei-	4e	8AL	8CL	.
8ggJ	.	.	8BJ	8BBJ	.
8ff#L	-ner	(8aL	4c	4AA	.
8eeJ	.	16bL	.	.	.
.	.	16ccJJ)	.	.	.
=10	=10	=10	=10	=10	=10
8dd#L	Won-	8f#L	4B	4BB	.
8cc#J	.	8eJ	.	.	.
4b;	-ne,	4d#;	4F#;	4BB;	.
4r	.	4r	4r	4r	.
4ee	gib	4e	4B	4G#	.
=11	=11	=11	=11	=11	=11
! (8ddP/	!	!	!	!	!
4ccp)	dich	4.e	8AL	8A	dich
.	.	.	8BJ	8AA	zu-
8bL	zu-	.	4c	[4A	-frie-
8aJ	.	8f#	.	.	.
8bL	-frie-	8d#L	8F#L	8AL]	.
8d#J	.	8f#J	8AJ	8F#J	.
8e	-den,	8e	8B	8G	-den,
8a	zu-	8e	8A	8C	.
=12	=12	=12	=12	=12	=12
4g	-frie-	4e	4B	8BBL	.
.	.	.	.	8AAJ	.
8f#L	.	4d#	8AL	4BB	.
8eJ	.	.	8GJ	.	.
4e;	-den.	4B;	4G;	4E;	.
==|!	==|!	==|!	==|!	==|!	==|!
*-	*-	*-	*-	*-	*-
!!!RWG: Appoggiaturas of spine '[SOPRANO]' need manual editing in measures: 11
!!!RWG: Key is interpreted using the Humdrum key tool.
!!!END: 1994/06/06
!!!EMD: Converted from MuseData to Humdrum Dec 19, 2000, by Andreas Kornstaedt using muse2kern.
!!!EED: Craig Stuart Sapp
!!!EEV: 2024/03/31
!!!ONB: Some non-unicode characters
